img/svg/mail-icon.svg

<svg width="28" height="22" viewBox="0 0 28 22" fill="none" xmlns="http://www.w3.org/2000/svg">
<path d="M24.666 0.333252H3.33268C1.86602 0.333252 0.679349 1.53325 0.679349 2.99992L0.666016 18.9999C0.666016 20.4666 1.86602 21.6666 3.33268 21.6666H24.666C26.1327 21.6666 27.3327 20.4666 27.3327 18.9999V2.99992C27.3327 1.53325 26.1327 0.333252 24.666 0.333252ZM24.666 18.9999H3.33268V5.66658L13.9993 12.3333L24.666 5.66658V18.9999ZM13.9993 9.66658L3.33268 2.99992H24.666L13.9993 9.66658Z" fill="white"/>
</svg>

<svg width="28" height="22" viewBox="0 0 28 22" fill="none" xmlns="http://www.w3.org/2000/svg"><path d="M24.666.333H3.333A2.663 2.663 0 00.679 3L.666 19c0 1.467 1.2 2.667 2.667 2.667h21.333c1.467 0 2.667-1.2 2.667-2.667V3c0-1.467-1.2-2.667-2.667-2.667zm0 18.667H3.333V5.667l10.666 6.666 10.667-6.666V19zM13.999 9.667L3.333 3h21.333L13.999 9.667z" fill="#fff"/></svg>
